X:8
T: Der Chupfer-Tanz (Walzer) D (tinwhistle in D)
T:wz00999 (Hanny Christen)
%%MIDI program 72   % 111 /74 / 79=whistle
R:waltz
M:3/4
L:1/4
K:D %%MIDI gchordon
A|"D"A2B/c/ | d2c | ("A7"G3 | G)zA | A2B | c2B | ("D"F3 | F)zf | f2f | 
g2f | "G"e2B | B3 | "A7"A^GA | f2e | "D"d>dd | dz(3A/B/c/ |: "D"dcB | AGF | "A7"E>AA | 
c2A |1 G>AA | c>AG | "D"FzA | d>A B/c/ :|2 ^G2A | f2e | "D"d>dd | dzz |] 

